X:26
T:Jig of Slurs
M:6/8
K:D
B|A2d dcd|Bdd Add|Bdd Add|Bee efe|A2d dcd|Bdd Add|
Bdd cde|fdd d2::B|a2f fef|gff fed|B2e ede|fee edB|
a2f fef|gff fed|Bdd cde|fdd d2::\
K:G
G|G2g gfg|aee gdB|
G2g gfg|aee g2A|G2g gfg|aee gdB|Bee efg|fed e2::A2|G2B Bdd|
dee edB|G2B Bdd|dee egg|G2B Bdd|dee edB|Bee efg|fed e2:|

